Numix-Light/16/status/indicator-keyboard-Gu.svg

<?xml version="1.0" encoding="UTF-8" standalone="no"?>
<svg
   xmlns:dc="http://purl.org/dc/elements/1.1/"
   xmlns:cc="http://creativecommons.org/ns#"
   xmlns:rdf="http://www.w3.org/1999/02/22-rdf-syntax-ns#"
   xmlns:svg="http://www.w3.org/2000/svg"
   xmlns="http://www.w3.org/2000/svg"
   xmlns:sodipodi="http://sodipodi.sourceforge.net/DTD/sodipodi-0.dtd"
   xmlns:inkscape="http://www.inkscape.org/namespaces/inkscape"
   viewBox="0 0 16 16"
   id="svg2"
   version="1.1"
   inkscape:version="0.91 r13725"
   sodipodi:docname="indicator-keyboard-Gu.svg">
  <metadata
     id="metadata13">
    <rdf:RDF>
      <cc:Work
         rdf:about="">
        <dc:format>image/svg+xml</dc:format>
        <dc:type
           rdf:resource="http://purl.org/dc/dcmitype/StillImage" />
      </cc:Work>
    </rdf:RDF>
  </metadata>
  <defs
     id="defs11" />
  <sodipodi:namedview
     pagecolor="#ffffff"
     bordercolor="#666666"
     borderopacity="1"
     objecttolerance="10"
     gridtolerance="10"
     guidetolerance="10"
     inkscape:pageopacity="0"
     inkscape:pageshadow="2"
     inkscape:window-width="640"
     inkscape:window-height="480"
     id="namedview9"
     showgrid="false"
     inkscape:zoom="14.75"
     inkscape:cx="8"
     inkscape:cy="8"
     inkscape:window-x="65"
     inkscape:window-y="24"
     inkscape:window-maximized="0"
     inkscape:current-layer="svg2" />
  <path
     style="fill:#353535;fill-opacity:1"
     d="M 1.5996094 0 C 0.71320937 2.9605947e-16 0 0.71320937 0 1.5996094 L 0 14.400391 C 2.9605947e-16 15.286791 0.71320937 16 1.5996094 16 L 14.400391 16 C 15.286791 16 16 15.286791 16 14.400391 L 16 1.5996094 C 16 0.71320937 15.286791 0 14.400391 0 L 1.5996094 0 z M 6.078125 4.7519531 C 6.540125 4.7519531 6.9207031 4.8022969 7.2207031 4.9042969 C 7.5207031 5.0002969 7.7389531 5.0935937 7.8769531 5.1835938 L 7.6699219 5.7050781 C 7.5019219 5.5850781 7.2743281 5.4899687 6.9863281 5.4179688 C 6.6983281 5.3399688 6.3867812 5.3007812 6.0507812 5.3007812 C 5.7387812 5.3007812 5.4439688 5.3567031 5.1679688 5.4707031 C 4.8919688 5.5847031 4.6532187 5.756375 4.4492188 5.984375 C 4.2452187 6.212375 4.0828906 6.4940781 3.9628906 6.8300781 C 3.8488906 7.1660781 3.7910156 7.556 3.7910156 8 C 3.7910156 8.414 3.8395469 8.789 3.9355469 9.125 C 4.0315469 9.455 4.1751875 9.7404687 4.3671875 9.9804688 C 4.5651875 10.214469 4.8077031 10.393531 5.0957031 10.519531 C 5.3837031 10.645531 5.7177031 10.708984 6.0957031 10.708984 C 6.4017031 10.708984 6.6573281 10.694063 6.8613281 10.664062 C 7.0713281 10.628063 7.2112031 10.594453 7.2832031 10.564453 L 7.2832031 8.171875 L 7.8964844 8.171875 L 7.8964844 10.951172 C 7.7824844 10.999172 7.5567031 11.060812 7.2207031 11.132812 C 6.8907031 11.210813 6.4820938 11.248047 5.9960938 11.248047 C 5.5880937 11.248047 5.2112813 11.177203 4.8632812 11.033203 C 4.5152813 10.889203 4.211125 10.682109 3.953125 10.412109 C 3.701125 10.136109 3.503375 9.7965313 3.359375 9.3945312 C 3.215375 8.9865312 3.1445312 8.522 3.1445312 8 C 3.1445312 7.478 3.2209531 7.0152813 3.3769531 6.6132812 C 3.5329531 6.2052812 3.7438125 5.8676563 4.0078125 5.5976562 C 4.2778125 5.3216563 4.5893594 5.1107969 4.9433594 4.9667969 C 5.2973594 4.8227969 5.676125 4.7519531 6.078125 4.7519531 z M 9.2285156 6.4707031 L 9.8144531 6.4707031 L 9.8144531 8.890625 C 9.8144531 9.220625 9.8387188 9.5005156 9.8867188 9.7285156 C 9.9347188 9.9565156 10.013094 10.141156 10.121094 10.285156 C 10.229094 10.423156 10.367156 10.525797 10.535156 10.591797 C 10.709156 10.651797 10.918062 10.681641 11.164062 10.681641 C 11.440063 10.681641 11.680766 10.666719 11.884766 10.636719 C 12.088766 10.606719 12.217484 10.580641 12.271484 10.556641 L 12.271484 6.4707031 L 12.855469 6.4707031 L 12.855469 10.960938 C 12.681469 11.008938 12.448297 11.063047 12.154297 11.123047 C 11.860297 11.183047 11.500219 11.212891 11.074219 11.212891 C 10.726219 11.212891 10.435172 11.162547 10.201172 11.060547 C 9.9671717 10.958547 9.7787656 10.814906 9.6347656 10.628906 C 9.4907656 10.442906 9.3863125 10.217125 9.3203125 9.953125 C 9.2603125 9.689125 9.2285156 9.3980781 9.2285156 9.0800781 L 9.2285156 6.4707031 z "
     id="path4" />
</svg>

<svg xmlns="http://www.w3.org/2000/svg" viewBox="0 0 16 16">
 <path d="m 1.6 0 c -0.886 0 -1.6 0.713 -1.6 1.6 l 0 12.801 c 0 0.886 0.713 1.6 1.6 1.6 l 12.801 0 c 0.886 0 1.6 -0.713 1.6 -1.6 l 0 -12.801 c 0 -0.886 -0.713 -1.6 -1.6 -1.6 l -12.801 0 z m 4.479 4.752 c 0.462 0 0.843 0.05 1.143 0.152 c 0.3 0.096 0.518 0.189 0.656 0.279 l -0.207 0.521 c -0.168 -0.12 -0.396 -0.215 -0.684 -0.287 c -0.288 -0.078 -0.6 -0.117 -0.936 -0.117 c -0.312 0 -0.607 0.056 -0.883 0.17 c -0.276 0.114 -0.515 0.286 -0.719 0.514 c -0.204 0.228 -0.366 0.51 -0.486 0.846 c -0.114 0.336 -0.172 0.726 -0.172 1.17 c 0 0.414 0.049 0.789 0.145 1.125 c 0.096 0.33 0.24 0.615 0.432 0.855 c 0.198 0.234 0.441 0.413 0.729 0.539 c 0.288 0.126 0.622 0.189 1 0.189 c 0.306 0 0.562 -0.015 0.766 -0.045 c 0.21 -0.036 0.35 -0.07 0.422 -0.1 l 0 -2.393 l 0.613 0 l 0 2.779 c -0.114 0.048 -0.34 0.11 -0.676 0.182 c -0.33 0.078 -0.739 0.115 -1.225 0.115 c -0.408 0 -0.785 -0.071 -1.133 -0.215 c -0.348 -0.144 -0.652 -0.351 -0.91 -0.621 c -0.252 -0.276 -0.45 -0.616 -0.594 -1.018 c -0.144 -0.408 -0.215 -0.873 -0.215 -1.395 c 0 -0.522 0.076 -0.985 0.232 -1.387 c 0.156 -0.408 0.367 -0.746 0.631 -1.016 c 0.27 -0.276 0.582 -0.487 0.936 -0.631 c 0.354 -0.144 0.733 -0.215 1.135 -0.215 z m 3.15 1.719 l 0.586 0 l 0 2.42 c 0 0.33 0.024 0.61 0.072 0.838 c 0.048 0.228 0.126 0.413 0.234 0.557 c 0.108 0.138 0.246 0.241 0.414 0.307 c 0.174 0.06 0.383 0.09 0.629 0.09 c 0.276 0 0.517 -0.015 0.721 -0.045 c 0.204 -0.03 0.333 -0.056 0.387 -0.08 l 0 -4.086 l 0.584 0 l 0 4.49 c -0.174 0.048 -0.407 0.102 -0.701 0.162 c -0.294 0.06 -0.654 0.09 -1.08 0.09 c -0.348 0 -0.639 -0.05 -0.873 -0.152 c -0.234 -0.102 -0.422 -0.246 -0.566 -0.432 c -0.144 -0.186 -0.248 -0.412 -0.314 -0.676 c -0.06 -0.264 -0.092 -0.555 -0.092 -0.873 l 0 -2.609 z" style="fill:#353535;fill-opacity:1"/>
</svg>
